!!!OTL: 2f. Christinchen, die Ungluecksbraut.
!!!ODT: 1879
!!!ARE: Europa, Mitteleuropa, Deutschland, Hannover
!!!SCT: E0002E
!!!TXL: @@DE
!!!YEM: Copyright 1995, estate of Helmut Schaffrath.
**kern	**text
*ICvox	*
*M4/4	*
*met(c)	*
*k[f#]	*
*G:	*
!LO:TX:a:t=Ruhig.	!
!LO:TX:a:t=Aus Kindermund in Hannover. 1879	!
{4d	Chri-
=1	=1
4g	-ſtin-
4g	-chen
4d	gieng
4d	in
=2	=2
4e	Gar-
4d	-ten,
4r}	.
{4d	Drei
=3	=3
4g	Ro-
4g	-ſen
4d	wollt
4d	ſie
=4	=4
4e	war-
4d	-ten.
4r}	.
{4d	Jhr
=5	=5
4d	Ʒeichen
4b	ſah
4b	ſie
4a	am
=6	=6
4a	Him-
4g	-mel
4g}	ſtehn,
{4b	daß
=7	=7
4a	ſie
4a	im
4dd	Rhein
4dd	ſollt
=8	=8
4b	un-
4a	-ter-
4g;}	-gehn.
==	==
!!!AGN: Sage, Maerchen -, Zauber - Lied; Kinder - Lied, Ballade ?
!!!ONB: ESAC (Essen Associative Code) Database: ERK1
!!!AMT: simple quadruple
!!!AIN: vox
!!!EED: Helmut Schaffrath
!!!EEV: 1.0
!!!GTL: Nachtklaenge der Goettersage (Zaubermaeren)
!!!URL-scan: https://rosdok.uni-rostock.de/mcrviewer/recordIdentifier/rosdok_ppn745146120/iview2/phys_0079.iview2?x=-4.404412318552431&y=685.0012116836151&scale=0.645690413860662&rotation=0&layout=singlePageLayout&logicalDiv=log_0009
!!!ENC: Anna Maria Matuszewska
!!!EEV: 2024/22/11
*-	*-
